dist/uploads/catalog-sidebar-icons/1/i-catalog-3.svg

<svg width="38" height="22" viewBox="0 0 38 22" fill="none" xmlns="http://www.w3.org/2000/svg">
<path fill-rule="evenodd" clip-rule="evenodd" d="M36.4167 0H23.0589H14.9411H1.58333C1.16341 0 0.76068 0.16556 0.463748 0.46026C0.166815 0.75496 0 1.15466 0 1.57143L0 22H3.16667V15.7143H34.8333V22H38V1.57143C38 1.15466 37.8332 0.75496 37.5363 0.46026C37.2393 0.16556 36.8366 0 36.4167 0ZM3.16667 12.5714H19V9.42857H3.16667V12.5714ZM3.16667 6.28572H19V3.14286H3.16667V6.28572ZM27.6203 9.16374C27.8807 9.33641 28.1868 9.42857 28.5 9.42857C28.9199 9.42857 29.3227 9.26301 29.6196 8.96831C29.9165 8.67361 30.0833 8.27391 30.0833 7.85714C30.0833 7.54634 29.9905 7.24252 29.8165 6.9841C29.6425 6.72568 29.3952 6.52427 29.1059 6.40533C28.8166 6.2864 28.4982 6.25528 28.1911 6.31591C27.884 6.37654 27.6018 6.52621 27.3804 6.74598C27.159 6.96574 27.0082 7.24574 26.9471 7.55057C26.886 7.8554 26.9174 8.17136 27.0372 8.4585C27.157 8.74565 27.36 8.99107 27.6203 9.16374Z" fill="#FFC800"/>
</svg>

<svg width="38" height="22" fill="none" xmlns="http://www.w3.org/2000/svg"><path fill-rule="evenodd" clip-rule="evenodd" d="M36.417 0H1.583c-.42 0-.822.166-1.12.46A1.565 1.565 0 0 0 0 1.571V22h3.167v-6.286h31.666V22H38V1.571c0-.416-.167-.816-.464-1.11A1.59 1.59 0 0 0 36.416 0zM3.167 12.571H19V9.43H3.167v3.142zm0-6.285H19V3.143H3.167v3.143zM27.62 9.164a1.592 1.592 0 0 0 2-.196 1.566 1.566 0 0 0-.514-2.563 1.595 1.595 0 0 0-1.726.341 1.568 1.568 0 0 0-.343 1.713c.12.287.323.532.583.705z" fill="#FFC800"/></svg>
